X: 2
T: The Galway
R: hornpipe
M: 4/4
L: 1/8
K: Gmaj
G2 B<d g>dB>G | F<GA>B c>AF>A | G2 B<d g>fg>b | (3aba (3gfe (3ded (3cBA |G2 B<d g>dB>G | F<GA>B c>AF>A | G>gf>e (3ded (3cBA | B2 G2 G2 :|b>ab>c' b>ag>f | e>de>f e2 (3efg | a>ga>b a>gf>e | (3ded c<e d2 d<f |g>fg>a b>gd>B | c>Bc>d e>gf>e | G>gf>e (3ded (3cBA | B2 G2 G2 :|


Tune 38	Setting 38

